X:25
T:DEROBEE DE PLOEUC
Z: Yves BELOTTEAU
M:4/4
L:1/8
Q:1/4=60
K:G
|GG/2A/2BG FGA2|GAcB G2G2|GG/2A/2BG FGA2|GAcB G2G2|
BB/2B/2BB/2B/2 Bdd2|cc/2c/2cc/2c/2 ced2|BB/2B/2BB/2B/2 Bdd2|cABG AFG2|
